X:470
T:Yotto Na
Z:Jack Campin, http://www.campin.me.uk/
F:Jack Campin's Nine-Note Tunebook
% last edit 03-02-2013
B:Hootenanny Song Book
G:Japanese miners' song
M:C
L:1/8
Q:1/4=100
K:GDor
P:Verse
d4|B2  BB cc dd|c8      |B4    G2 F2|D2 F2 G2 B2|G8 |
   D>D D2 F2 G2|B2 G2 c4|d2 B2 G2 F2|D2 F2 G2 B2|G8||
P:Refrain
G>F G4 G>F|G4|]

